src/next/cmd/ko/sc_outlinefont.svg

<svg height="16" viewBox="0 0 16 16" width="16" xmlns="http://www.w3.org/2000/svg">/&amp;amp;amp;gt;<path d="m11.75.5v15h1.875001v-6.5624992h1.874999v-1.8750002h-1.874999v-6.5625006zm-11.25000027.9375001v1.875h7.50000047c0 5.6250007-3.7500002 9.3750009-7.50000047 9.3750009v1.874999c5.62500037 0 9.37500077-4.6874994 9.37500077-11.7590344v-1.3659655z" fill="#fff" fill-rule="evenodd" stroke="#000" stroke-width=".799006"/></svg>

<?xml version="1.0" encoding="UTF-8" standalone="no"?>
<svg
   xmlns:dc="http://purl.org/dc/elements/1.1/"
   xmlns:cc="http://creativecommons.org/ns#"
   xmlns:rdf="http://www.w3.org/1999/02/22-rdf-syntax-ns#"
   xmlns:svg="http://www.w3.org/2000/svg"
   xmlns="http://www.w3.org/2000/svg"
   xmlns:sodipodi="http://sodipodi.sourceforge.net/DTD/sodipodi-0.dtd"
   xmlns:inkscape="http://www.inkscape.org/namespaces/inkscape"
   height="16"
   viewBox="0 0 16 16"
   width="16"
   version="1.1"
   id="svg4"
   sodipodi:docname="sc_outlinefont.svg"
   inkscape:version="0.92.4 (unknown)"><metadata
   id="metadata10">
  <rdf:RDF>
    <cc:Work
       rdf:about="">
      <dc:format>image/svg+xml</dc:format>
      <dc:type
         rdf:resource="http://purl.org/dc/dcmitype/StillImage" />
      <dc:title></dc:title>
    </cc:Work>
  </rdf:RDF>
</metadata>
<defs
   id="defs8" />
<sodipodi:namedview
   pagecolor="#ffffff"
   bordercolor="#666666"
   borderopacity="1"
   objecttolerance="10"
   gridtolerance="10"
   guidetolerance="10"
   inkscape:pageopacity="0"
   inkscape:pageshadow="2"
   inkscape:window-width="1366"
   inkscape:window-height="706"
   id="namedview6"
   showgrid="true"
   inkscape:zoom="14.75"
   inkscape:cx="13.919001"
   inkscape:cy="12.296588"
   inkscape:window-x="0"
   inkscape:window-y="0"
   inkscape:window-maximized="1"
   inkscape:current-layer="svg4">
  <inkscape:grid
     type="xygrid"
     id="grid817" />
</sodipodi:namedview>
/&amp;amp;gt;<path
   style="fill:#ffffff;fill-rule:evenodd;stroke:#000000;stroke-width:0.79900575"
   inkscape:connector-curvature="0"
   d="m 11.75,0.5 v 15 h 1.875001 V 8.9375008 H 15.5 V 7.0625006 H 13.625001 V 0.5 Z M 0.49999973,1.4375001 v 1.875 H 8.0000002 c 0,5.6250007 -3.7500002,9.3750009 -7.50000047,9.3750009 V 14.5625 C 6.1250001,14.5625 9.8750005,9.8750006 9.8750005,2.8034656 V 1.4375001 Z"
   id="path2" />
</svg>
